X: 14600
T: Gan Ainm
R: jig
M: 6/8
K: Cmajor
|:GA|Gcd eee|de/d/c dBc|Gcd eee|de/d/c gcd|
Gcd eee|de/d/c c'ba|g/g/g/g/g ee/e/e|edc c:|

